Numix/16/status/indicator-keyboard-By-2.svg

<?xml version="1.0" encoding="UTF-8" standalone="no"?>
<svg
   xmlns:dc="http://purl.org/dc/elements/1.1/"
   xmlns:cc="http://creativecommons.org/ns#"
   xmlns:rdf="http://www.w3.org/1999/02/22-rdf-syntax-ns#"
   xmlns:svg="http://www.w3.org/2000/svg"
   xmlns="http://www.w3.org/2000/svg"
   xmlns:sodipodi="http://sodipodi.sourceforge.net/DTD/sodipodi-0.dtd"
   xmlns:inkscape="http://www.inkscape.org/namespaces/inkscape"
   viewBox="0 0 16 16"
   id="svg2"
   version="1.1"
   inkscape:version="0.91 r13725"
   sodipodi:docname="indicator-keyboard-By-2.svg">
  <metadata
     id="metadata14">
    <rdf:RDF>
      <cc:Work
         rdf:about="">
        <dc:format>image/svg+xml</dc:format>
        <dc:type
           rdf:resource="http://purl.org/dc/dcmitype/StillImage" />
      </cc:Work>
    </rdf:RDF>
  </metadata>
  <defs
     id="defs12" />
  <sodipodi:namedview
     pagecolor="#ffffff"
     bordercolor="#666666"
     borderopacity="1"
     objecttolerance="10"
     gridtolerance="10"
     guidetolerance="10"
     inkscape:pageopacity="0"
     inkscape:pageshadow="2"
     inkscape:window-width="459"
     inkscape:window-height="369"
     id="namedview10"
     showgrid="false"
     inkscape:zoom="14.75"
     inkscape:cx="8"
     inkscape:cy="8"
     inkscape:window-x="65"
     inkscape:window-y="24"
     inkscape:window-maximized="0"
     inkscape:current-layer="svg2" />
  <path
     style="fill:#ececec;fill-opacity:1"
     d="M 1.5996094 0 C 0.71320937 2.9605947e-16 0 0.71320937 0 1.5996094 L 0 14.400391 C 2.9605947e-16 15.286791 0.71320937 16 1.5996094 16 L 14.400391 16 C 15.286791 16 16 15.286791 16 14.400391 L 16 1.5996094 C 16 0.71320937 15.286791 0 14.400391 0 L 1.5996094 0 z M 3.5839844 4.8046875 C 3.9199844 4.8046875 4.2371094 4.8327187 4.5371094 4.8867188 C 4.8431094 4.9407188 5.1098906 5.03025 5.3378906 5.15625 C 5.5658906 5.28225 5.7469063 5.4501562 5.8789062 5.6601562 C 6.0169062 5.8641562 6.0859375 6.1197813 6.0859375 6.4257812 C 6.0859375 6.7617813 5.9982188 7.0490625 5.8242188 7.2890625 C 5.6562187 7.5230625 5.428625 7.6853906 5.140625 7.7753906 C 5.320625 7.8173906 5.4847656 7.8770781 5.6347656 7.9550781 C 5.7847656 8.0330781 5.91725 8.1357187 6.03125 8.2617188 C 6.14525 8.3817188 6.2329688 8.5309375 6.2929688 8.7109375 C 6.3589687 8.8849375 6.390625 9.0957969 6.390625 9.3417969 C 6.390625 9.9297971 6.1574531 10.379406 5.6894531 10.691406 C 5.2214531 10.997406 4.4975313 11.150391 3.5195312 11.150391 C 3.4175312 11.150391 3.2981562 11.144813 3.1601562 11.132812 C 3.0281563 11.126813 2.8900937 11.113703 2.7460938 11.095703 C 2.6080937 11.083703 2.4756094 11.068781 2.3496094 11.050781 C 2.2236094 11.026781 2.1173437 11.002516 2.0273438 10.978516 L 2.0273438 4.9765625 C 2.1353437 4.9465625 2.2547188 4.9222969 2.3867188 4.9042969 C 2.5187188 4.8802969 2.6530156 4.8616094 2.7910156 4.8496094 C 2.9350156 4.8316094 3.0730781 4.8204531 3.2050781 4.8144531 C 3.3430781 4.8084531 3.4699844 4.8046875 3.5839844 4.8046875 z M 3.5839844 5.3261719 C 3.3619844 5.3261719 3.171625 5.3337031 3.015625 5.3457031 C 2.865625 5.3577031 2.7406719 5.372625 2.6386719 5.390625 L 2.6386719 7.5859375 L 3.8261719 7.5859375 C 4.0481719 7.5859375 4.2590313 7.5710156 4.4570312 7.5410156 C 4.6550312 7.5050156 4.82475 7.4453281 4.96875 7.3613281 C 5.11875 7.2713281 5.2363125 7.1537656 5.3203125 7.0097656 C 5.4043125 6.8597656 5.4472656 6.6713594 5.4472656 6.4433594 C 5.4472656 6.2393594 5.4005469 6.0676875 5.3105469 5.9296875 C 5.2205469 5.7856875 5.0918281 5.668125 4.9238281 5.578125 C 4.7618281 5.488125 4.5678437 5.426625 4.3398438 5.390625 C 4.1118438 5.348625 3.8599844 5.3261719 3.5839844 5.3261719 z M 7.0742188 6.4433594 L 7.6953125 6.4433594 C 7.7613125 6.7313594 7.8452656 7.0429062 7.9472656 7.3789062 C 8.0492656 7.7089062 8.1630625 8.0502969 8.2890625 8.4042969 C 8.4210625 8.7582969 8.5647031 9.1221406 8.7207031 9.4941406 C 8.8767031 9.8661408 9.0446094 10.231797 9.2246094 10.591797 C 9.3566094 10.219797 9.4741719 9.8690627 9.5761719 9.5390625 C 9.6781719 9.2090625 9.7714688 8.8825937 9.8554688 8.5585938 C 9.9454688 8.2285937 10.029422 7.8927813 10.107422 7.5507812 C 10.191422 7.2087813 10.277188 6.8393594 10.367188 6.4433594 L 10.953125 6.4433594 C 10.761125 7.3133594 10.542875 8.1584688 10.296875 8.9804688 C 10.050875 9.8024689 9.7840937 10.556234 9.4960938 11.240234 C 9.3820938 11.510234 9.2645312 11.741594 9.1445312 11.933594 C 9.0245313 12.131594 8.8882812 12.293922 8.7382812 12.419922 C 8.5942812 12.545922 8.4245625 12.637266 8.2265625 12.697266 C 8.0345625 12.757266 7.8069688 12.787109 7.5429688 12.787109 C 7.3929687 12.787109 7.2549063 12.770375 7.1289062 12.734375 C 7.0089063 12.698375 6.9323437 12.670344 6.9023438 12.652344 L 7.0195312 12.167969 C 7.0435313 12.185969 7.11075 12.208281 7.21875 12.238281 C 7.33275 12.274281 7.4483594 12.292969 7.5683594 12.292969 C 7.7363594 12.292969 7.8875312 12.274281 8.0195312 12.238281 C 8.1575313 12.202281 8.2806719 12.140781 8.3886719 12.050781 C 8.4966719 11.966781 8.5917813 11.854797 8.6757812 11.716797 C 8.7657812 11.578797 8.8535 11.405312 8.9375 11.195312 C 8.7395 10.829313 8.5473281 10.448734 8.3613281 10.052734 C 8.1813281 9.6567342 8.0096562 9.2574687 7.8476562 8.8554688 C 7.6916563 8.4474688 7.5480156 8.042625 7.4160156 7.640625 C 7.2840156 7.232625 7.1702187 6.8333594 7.0742188 6.4433594 z M 2.6386719 8.1074219 L 2.6386719 10.564453 C 2.7286719 10.576453 2.8629687 10.591375 3.0429688 10.609375 C 3.2229688 10.621375 3.4057969 10.628906 3.5917969 10.628906 C 3.8677969 10.628906 4.1345781 10.610219 4.3925781 10.574219 C 4.6565781 10.538219 4.8879375 10.472953 5.0859375 10.376953 C 5.2839375 10.280953 5.4425 10.148469 5.5625 9.9804688 C 5.6825 9.8124687 5.7441406 9.5960312 5.7441406 9.3320312 C 5.7441406 9.0920312 5.7011875 8.8942812 5.6171875 8.7382812 C 5.5331875 8.5762813 5.4138125 8.449375 5.2578125 8.359375 C 5.1018125 8.263375 4.9096406 8.1981094 4.6816406 8.1621094 C 4.4596406 8.1261094 4.2095937 8.1074219 3.9335938 8.1074219 L 2.6386719 8.1074219 z M 12.646484 8.7539062 C 13.040384 8.7539062 13.336256 8.851875 13.535156 9.046875 C 13.734056 9.237975 13.833984 9.5044563 13.833984 9.8476562 C 13.833984 9.9997563 13.806553 10.14475 13.751953 10.28125 C 13.697353 10.41385 13.622897 10.543169 13.529297 10.667969 C 13.439597 10.792769 13.33575 10.912297 13.21875 11.029297 C 13.10175 11.146297 12.982228 11.263859 12.861328 11.380859 C 12.759928 11.478359 12.661953 11.578288 12.564453 11.679688 C 12.470853 11.777188 12.384641 11.877116 12.306641 11.978516 C 12.232541 12.076016 12.1718 12.172031 12.125 12.269531 C 12.0821 12.363131 12.060547 12.457181 12.060547 12.550781 L 12.060547 12.5625 L 13.972656 12.5625 L 13.972656 12.896484 L 11.638672 12.896484 C 11.638672 12.888684 11.636746 12.874969 11.632812 12.855469 L 11.632812 12.755859 C 11.632812 12.572559 11.666122 12.402094 11.732422 12.246094 C 11.798722 12.086194 11.882975 11.937275 11.984375 11.796875 C 12.089675 11.656475 12.205278 11.525197 12.330078 11.404297 C 12.458778 11.283397 12.582219 11.165834 12.699219 11.052734 C 12.796719 10.959134 12.886856 10.869003 12.972656 10.783203 C 13.062356 10.693503 13.140731 10.603366 13.207031 10.509766 C 13.273331 10.416166 13.326234 10.316237 13.365234 10.210938 C 13.404234 10.105638 13.423828 9.9900344 13.423828 9.8652344 C 13.423828 9.5922344 13.349372 9.39825 13.201172 9.28125 C 13.056872 9.16035 12.874644 9.0996094 12.652344 9.0996094 C 12.527544 9.0996094 12.415859 9.1152844 12.318359 9.1464844 C 12.220859 9.1776844 12.134647 9.2149125 12.060547 9.2578125 C 11.990347 9.2968125 11.929606 9.3379594 11.878906 9.3808594 C 11.828206 9.4237594 11.790978 9.4570688 11.767578 9.4804688 L 11.568359 9.2167969 C 11.591759 9.1894969 11.632906 9.1503094 11.691406 9.0996094 C 11.753806 9.0450094 11.830222 8.9921062 11.919922 8.9414062 C 12.013522 8.8907063 12.121287 8.8476 12.242188 8.8125 C 12.363087 8.7735 12.498284 8.7539063 12.646484 8.7539062 z "
     id="path4" />
</svg>

<svg xmlns="http://www.w3.org/2000/svg" viewBox="0 0 16 16">
 <path d="m 1.6 0 c -0.886 0 -1.6 0.713 -1.6 1.6 l 0 12.801 c 0 0.886 0.713 1.6 1.6 1.6 l 12.801 0 c 0.886 0 1.6 -0.713 1.6 -1.6 l 0 -12.801 c 0 -0.886 -0.713 -1.6 -1.6 -1.6 l -12.801 0 z m 1.984 4.805 c 0.336 0 0.653 0.028 0.953 0.082 c 0.306 0.054 0.573 0.144 0.801 0.27 c 0.228 0.126 0.409 0.294 0.541 0.504 c 0.138 0.204 0.207 0.46 0.207 0.766 c 0 0.336 -0.088 0.623 -0.262 0.863 c -0.168 0.234 -0.396 0.396 -0.684 0.486 c 0.18 0.042 0.344 0.102 0.494 0.18 c 0.15 0.078 0.282 0.181 0.396 0.307 c 0.114 0.12 0.202 0.269 0.262 0.449 c 0.066 0.174 0.098 0.385 0.098 0.631 c 0 0.588 -0.233 1.038 -0.701 1.35 c -0.468 0.306 -1.192 0.459 -2.17 0.459 c -0.102 0 -0.221 -0.006 -0.359 -0.018 c -0.132 -0.006 -0.27 -0.019 -0.414 -0.037 c -0.138 -0.012 -0.27 -0.027 -0.396 -0.045 c -0.126 -0.024 -0.232 -0.048 -0.322 -0.072 l 0 -6 c 0.108 -0.03 0.227 -0.054 0.359 -0.072 c 0.132 -0.024 0.266 -0.043 0.404 -0.055 c 0.144 -0.018 0.282 -0.029 0.414 -0.035 c 0.138 -0.006 0.265 -0.01 0.379 -0.01 z m 0 0.521 c -0.222 0 -0.412 0.008 -0.568 0.02 c -0.15 0.012 -0.275 0.027 -0.377 0.045 l 0 2.195 l 1.188 0 c 0.222 0 0.433 -0.015 0.631 -0.045 c 0.198 -0.036 0.368 -0.096 0.512 -0.18 c 0.15 -0.09 0.268 -0.208 0.352 -0.352 c 0.084 -0.15 0.127 -0.338 0.127 -0.566 c 0 -0.204 -0.047 -0.376 -0.137 -0.514 c -0.09 -0.144 -0.219 -0.262 -0.387 -0.352 c -0.162 -0.09 -0.356 -0.152 -0.584 -0.188 c -0.228 -0.042 -0.48 -0.064 -0.756 -0.064 z m 3.49 1.117 l 0.621 0 c 0.066 0.288 0.15 0.6 0.252 0.936 c 0.102 0.33 0.216 0.671 0.342 1.025 c 0.132 0.354 0.276 0.718 0.432 1.09 c 0.156 0.372 0.324 0.738 0.504 1.098 c 0.132 -0.372 0.25 -0.723 0.352 -1.053 c 0.102 -0.33 0.195 -0.656 0.279 -0.98 c 0.09 -0.33 0.174 -0.666 0.252 -1.01 c 0.084 -0.342 0.17 -0.711 0.26 -1.107 l 0.586 0 c -0.192 0.87 -0.41 1.715 -0.656 2.537 c -0.246 0.822 -0.513 1.576 -0.801 2.26 c -0.114 0.27 -0.232 0.501 -0.352 0.693 c -0.12 0.198 -0.256 0.36 -0.406 0.486 c -0.144 0.126 -0.314 0.217 -0.512 0.277 c -0.192 0.06 -0.42 0.09 -0.684 0.09 c -0.15 0 -0.288 -0.017 -0.414 -0.053 c -0.12 -0.036 -0.197 -0.064 -0.227 -0.082 l 0.117 -0.484 c 0.024 0.018 0.091 0.04 0.199 0.07 c 0.114 0.036 0.23 0.055 0.35 0.055 c 0.168 0 0.319 -0.019 0.451 -0.055 c 0.138 -0.036 0.261 -0.098 0.369 -0.188 c 0.108 -0.084 0.203 -0.196 0.287 -0.334 c 0.09 -0.138 0.178 -0.311 0.262 -0.521 c -0.198 -0.366 -0.39 -0.747 -0.576 -1.143 c -0.18 -0.396 -0.352 -0.795 -0.514 -1.197 c -0.156 -0.408 -0.3 -0.813 -0.432 -1.215 c -0.132 -0.408 -0.246 -0.807 -0.342 -1.197 z m -4.436 1.664 l 0 2.457 c 0.09 0.012 0.224 0.027 0.404 0.045 c 0.18 0.012 0.363 0.02 0.549 0.02 c 0.276 0 0.543 -0.019 0.801 -0.055 c 0.264 -0.036 0.495 -0.101 0.693 -0.197 c 0.198 -0.096 0.357 -0.228 0.477 -0.396 c 0.12 -0.168 0.182 -0.384 0.182 -0.648 c 0 -0.24 -0.043 -0.438 -0.127 -0.594 c -0.084 -0.162 -0.203 -0.289 -0.359 -0.379 c -0.156 -0.096 -0.348 -0.161 -0.576 -0.197 c -0.222 -0.036 -0.472 -0.055 -0.748 -0.055 l -1.295 0 z m 10.01 0.646 c 0.394 0 0.69 0.098 0.889 0.293 c 0.199 0.191 0.299 0.458 0.299 0.801 c 0 0.152 -0.027 0.297 -0.082 0.434 c -0.055 0.133 -0.129 0.262 -0.223 0.387 c -0.09 0.125 -0.194 0.244 -0.311 0.361 c -0.117 0.117 -0.237 0.235 -0.357 0.352 c -0.101 0.098 -0.199 0.197 -0.297 0.299 c -0.094 0.098 -0.18 0.197 -0.258 0.299 c -0.074 0.097 -0.135 0.194 -0.182 0.291 c -0.043 0.094 -0.064 0.188 -0.064 0.281 l 0 0.012 l 1.912 0 l 0 0.334 l -2.334 0 c 0 -0.008 -0.002 -0.022 -0.006 -0.041 l 0 -0.1 c 0 -0.183 0.033 -0.354 0.1 -0.51 c 0.066 -0.16 0.151 -0.309 0.252 -0.449 c 0.105 -0.14 0.221 -0.272 0.346 -0.393 c 0.129 -0.121 0.252 -0.238 0.369 -0.352 c 0.098 -0.094 0.188 -0.184 0.273 -0.27 c 0.09 -0.09 0.168 -0.18 0.234 -0.273 c 0.066 -0.094 0.119 -0.194 0.158 -0.299 c 0.039 -0.105 0.059 -0.221 0.059 -0.346 c 0 -0.273 -0.074 -0.467 -0.223 -0.584 c -0.144 -0.121 -0.327 -0.182 -0.549 -0.182 c -0.125 0 -0.236 0.016 -0.334 0.047 c -0.097 0.031 -0.184 0.068 -0.258 0.111 c -0.07 0.039 -0.131 0.08 -0.182 0.123 c -0.051 0.043 -0.088 0.076 -0.111 0.1 l -0.199 -0.264 c 0.023 -0.027 0.065 -0.066 0.123 -0.117 c 0.062 -0.055 0.139 -0.108 0.229 -0.158 c 0.094 -0.051 0.201 -0.094 0.322 -0.129 c 0.121 -0.039 0.256 -0.059 0.404 -0.059 z" style="fill:#ececec;fill-opacity:1"/>
</svg>
